X: 87
T: No_177_Steal_Partner_Dance_Song_(f).krn
N: Derived from No_177_Steal_Partner_Dance_Song_(f).krn
%%abc-version 2.0
%%abcx-abcm2ps-target-version 5.9.1 (29 Sep 2008)
%%abc-creator hum2abc beta
%%abcx-conversion-date 2019/03/15 08:38:45
%%humdrum-veritas 1482020192
%%humdrum-veritas-data 3555596912
%%linebreak <none>
%%barnumbers 0
L: 1/8
M: 2/4
K: G clef=bass
[K:clef=bass][M:2/4]D2B,/B,G,/ | 
G,2z2 ||  
[M:3/4]D2B,/B,G,/G,2 ||  
[M:2/4]C2B,/G,G,/ | 
B,7/G,/ ]|:  
[M:3/4]D,2E,/D,D,/D,2 ||  
[M:2/4]E,D, G,G, | 
G,2z2 | 
F,D, G,G, ||  
[M:3/4]G,2F,G,D,2 ||  
[M:2/4](3G,G,D,D,2 | 
B, (3B,/G,/G,/G,2 | 
B,2(3DB,B, | 
B,3G, :|]  
D,G,/G,/ G, z | 
z3G, ||  
[M:3/4]D,2(3E,D,D, D, z/ D,/ | 
[M:2/4](D7/B,/) |]  



